X:13795
T:Queen's Highway, The
R:March
O:Scotland
M:2/4
L:1/8
K:D
FG|\
A2 A>B|AFED| f2 f>f| edBd \
|1 A2A>B | AFED| E2 E>F | E2 \
:|2 A2 d>e| fedc| d2 d>c | d2||
Ad|\
f>f fa| Adfa| g2 fg/f/| e2fg| \
afed| BAFA| GFED| E2 FG|
ADFA| dFAd| fagf| edcB| \
Aa^ga| gecA| d2 d>c| d2 |]
